X:81
T:Oyster Girl. JBs.081
S:Jas.Blackshaw MS, 1837, N.Shropshire
A:North Shropshire
Z:T. Weatherall 2006
M:6/8
L:1/8
Q:3/8=120
R:Jig
K:C
g|gag e2c|d2BG2G|cde gfe|â€*â€e3{fe}d2g|!
gag e2 c|câ€™2af2a|age gfd|d3c2:|!
|:c|e2ee2e|a2ee2e|d2d de^f|a3g2g|!
gag e2c|â€*â€câ€™2af2a|age gfd|d3c2:|

